d02977cdfd84f146f120.svg

<svg width="58" height="30" viewBox="0 0 58 30" fill="none" xmlns="http://www.w3.org/2000/svg">
<path fill-rule="evenodd" clip-rule="evenodd" d="M14.79 0C22.9597 0 29.58 6.72081 29.58 15.0042C29.58 23.2876 22.9597 30 14.79 30C6.62029 30 0 23.2876 0 15.0042C0 6.72081 6.62029 0 14.79 0ZM15.1049 9.1571C11.7823 9.1571 9.12257 11.837 9.12257 15.2478C9.12257 18.6334 11.7823 21.3134 15.1049 21.3134C16.7206 21.3134 18.1291 20.6581 19.1649 19.608C19.2809 19.4903 19.2809 19.3727 19.1649 19.2551L18.0629 18.0622C17.9634 17.9446 17.8309 17.9446 17.7149 18.0454C17.0189 18.667 16.1571 19.0535 15.0883 19.0535C13.0583 19.0535 11.4674 17.4237 11.4674 15.2478C11.4674 13.0552 13.0583 11.417 15.0883 11.417C16.1571 11.417 17.0189 11.8034 17.7149 12.4335C17.8309 12.5343 17.9634 12.5343 18.0629 12.4167L19.1649 11.2153C19.2809 11.0977 19.2809 10.9801 19.1649 10.8625C18.1291 9.82078 16.7206 9.1571 15.1049 9.1571ZM37.3696 11.17C38.509 11.17 39.5073 11.6107 40.2347 12.3117C40.3172 12.3912 40.3172 12.4701 40.2347 12.5495L39.4599 13.3525C39.3897 13.4314 39.2961 13.4314 39.2136 13.3638C38.7203 12.9451 38.1093 12.6848 37.3579 12.6848C35.926 12.6848 34.7983 13.7819 34.7983 15.2515C34.7983 16.7105 35.926 17.807 37.3579 17.807C38.1093 17.807 38.7203 17.5473 39.2136 17.1286C39.2961 17.061 39.3897 17.061 39.4599 17.1399L40.2347 17.9429C40.3172 18.0217 40.3172 18.1012 40.2347 18.1801C39.5073 18.8817 38.509 19.3223 37.3696 19.3223C35.0219 19.3223 33.1429 17.5242 33.1429 15.2515C33.1429 12.9676 35.0219 11.17 37.3696 11.17ZM42.8649 13.5216C43.6403 13.5216 44.2156 13.8608 44.6152 14.3696L44.6732 13.8044C44.6855 13.703 44.744 13.6348 44.8493 13.6348H45.871C45.977 13.6348 46.0472 13.703 46.0472 13.8044V19.0056C46.0472 19.1071 45.977 19.1752 45.871 19.1752H44.8493C44.744 19.1752 44.6855 19.1071 44.6732 19.0056L44.6029 18.463C44.2273 18.9267 43.652 19.2547 42.8649 19.2547C41.2452 19.2547 40.0707 17.9992 40.0707 16.4163C40.0707 14.7996 41.2452 13.5216 42.8649 13.5216ZM48.008 10.9213C48.1139 10.9213 48.1841 10.9889 48.1841 11.0909V19.006C48.1841 19.1074 48.1139 19.175 48.008 19.175H46.8101C46.7042 19.175 46.6339 19.1074 46.6339 19.006V11.0909C46.6339 10.9889 46.7042 10.9213 46.8101 10.9213H48.008ZM55.8401 13.5106C57.0959 13.5106 58 14.37 58 15.8509V19.006C58 19.1074 57.9298 19.175 57.8239 19.175H56.626C56.5207 19.175 56.4504 19.1074 56.4504 19.006V16.1225C56.4504 15.2062 55.9337 14.8895 55.3813 14.8895C54.5129 14.8895 54.1132 15.5573 54.1132 15.9529V19.006C54.1132 19.1074 54.043 19.175 53.9376 19.175H52.7398C52.6339 19.175 52.5636 19.1074 52.5636 19.006V16.1225C52.5636 15.2062 52.0469 14.8895 51.4834 14.8895C50.6144 14.8895 50.2153 15.7151 50.2153 15.9754V19.006C50.2153 19.1074 50.1445 19.175 50.0391 19.175H48.8419C48.7359 19.175 48.6657 19.1074 48.6657 19.006V13.8042C48.6657 13.7028 48.7359 13.6346 48.8419 13.6346H49.9917C50.0977 13.6346 50.1568 13.7028 50.1685 13.8042L50.2153 14.5278V14.5396C50.591 13.9513 51.2019 13.5106 52.0358 13.5106C52.7983 13.5106 53.4443 13.8724 53.8083 14.5396C54.2191 13.94 54.9003 13.5106 55.8401 13.5106ZM43.0411 14.8785C42.1838 14.8785 41.5617 15.5119 41.5617 16.405C41.5617 17.2644 42.1838 17.8972 43.0411 17.8972C43.9107 17.8972 44.5093 17.2531 44.5093 16.405C44.5093 15.5682 43.9107 14.8785 43.0411 14.8785Z" fill="#353732"/>
</svg>

<svg width="58" height="30" fill="none" xmlns="http://www.w3.org/2000/svg"><path fill-rule="evenodd" clip-rule="evenodd" d="M14.79 0c8.17 0 14.79 6.72 14.79 15.004C29.58 23.288 22.96 30 14.79 30 6.62 30 0 23.288 0 15.004 0 6.721 6.62 0 14.79 0zm.315 9.157c-3.323 0-5.982 2.68-5.982 6.09 0 3.386 2.66 6.066 5.982 6.066a5.64 5.64 0 004.06-1.705c.116-.118.116-.235 0-.353l-1.102-1.193c-.1-.117-.232-.117-.348-.017a3.826 3.826 0 01-2.627 1.008c-2.03 0-3.62-1.63-3.62-3.805 0-2.193 1.59-3.831 3.62-3.831 1.07 0 1.93.386 2.627 1.017.116.1.248.1.348-.017l1.102-1.202c.116-.117.116-.235 0-.352-1.036-1.042-2.444-1.706-4.06-1.706zM37.37 11.17a4.09 4.09 0 012.865 1.142c.082.08.082.158 0 .238l-.775.802c-.07.08-.164.08-.246.012a2.788 2.788 0 00-1.856-.68c-1.432 0-2.56 1.098-2.56 2.568 0 1.458 1.128 2.555 2.56 2.555.751 0 1.362-.26 1.856-.678.082-.068.176-.068.246.01l.775.804c.082.079.082.158 0 .237a4.09 4.09 0 01-2.865 1.142c-2.348 0-4.227-1.798-4.227-4.07 0-2.284 1.879-4.082 4.227-4.082zm5.495 2.352c.775 0 1.35.339 1.75.848l.058-.566c.012-.101.071-.17.176-.17h1.022c.106 0 .176.069.176.17v5.202c0 .101-.07.17-.176.17h-1.022c-.105 0-.163-.069-.176-.17l-.07-.543c-.376.464-.951.792-1.738.792-1.62 0-2.794-1.256-2.794-2.839 0-1.616 1.174-2.894 2.794-2.894zm5.143-2.6c.106 0 .176.067.176.169v7.915c0 .101-.07.169-.176.169H46.81c-.106 0-.176-.068-.176-.169v-7.915c0-.102.07-.17.176-.17h1.198zm7.832 2.589c1.256 0 2.16.859 2.16 2.34v3.155c0 .101-.07.169-.176.169h-1.198c-.105 0-.176-.068-.176-.169v-2.884c0-.916-.516-1.232-1.069-1.232-.868 0-1.268.667-1.268 1.063v3.053c0 .101-.07.169-.175.169H52.74c-.106 0-.176-.068-.176-.169v-2.884c0-.916-.517-1.232-1.08-1.232-.87 0-1.269.825-1.269 1.085v3.031c0 .101-.07.169-.176.169h-1.197c-.106 0-.176-.068-.176-.169v-5.202c0-.101.07-.17.176-.17h1.15c.106 0 .165.069.177.17l.046.724v.012c.376-.589.987-1.03 1.82-1.03.763 0 1.41.362 1.773 1.03.411-.6 1.092-1.03 2.032-1.03zm-12.799 1.368c-.857 0-1.48.633-1.48 1.526 0 .86.623 1.492 1.48 1.492.87 0 1.468-.644 1.468-1.492 0-.837-.598-1.527-1.468-1.527z" fill="#353732"/></svg>
